X:3806
T:Danza (CT 161)
R:Danza
C:Tradicional
S:Msica Tradicional Asturiana, (C) Tello & Tito. Asturies, 2001.
S:http://pagina.de/MusTradAst <telloytito@asturies.org>
N:Danza, transcrita en Lluarca.
N:Intervienen solamente mujeres.
O:Lluarca
A:Asturies
Z:Cancioneru de Torner 161
M:2/4
L:1/8
Q:1/4=100
W:Cantan los pajarillos
W:en la torre,
W:cantan y vanse
W:y no s para dnde.
W:
W:Ay, vida! Alonso,
W:dnde la llevas
W:Ay, vida! cuesta arriba,
W:y todo arena
W:
W:Ay, vida! dnde
W:la llevas, Alonso
W:Ay, vida! cuesta arriba,
W:y todo arenoso
W:
W:Ay, vida!bien cantaba
W:la culuebra,
W:Ay, vida! y tiene voces
W:de doncella.
K:G
G|Bd dd|BG cc|B2 A2-|A2 zG|
Bc cc|AF AA|G2 G2-|[1 G2 zG:|G2 z2||
